X: 5411
T: Bugle Horn, The
R: polka
M: 2/4
K: Gmajor
dB BG|G3 D|G>G AA|BB A/g/f/e/|
dB BG|G2 D2|A>A A/^G/A/B/|G3:|
G2 DB|G3 B|G>B GB|G2 Dg/e/|
dB c/B/A/G/|G2 D2|A>A AB|G3:|

